images_sukapura_svg/cmd/lc_currencyfield.svg

<svg viewBox="0 0 24 24" xmlns="http://www.w3.org/2000/svg" xmlns:xlink="http://www.w3.org/1999/xlink"><linearGradient id="a" gradientUnits="userSpaceOnUse" x1="-19.338983" x2="-18.79661" y1="24.61017" y2="13.42373"><stop offset="0" stop-color="#2a9240"/><stop offset="1" stop-color="#32d74b"/></linearGradient><linearGradient id="b" gradientUnits="userSpaceOnUse" x1="-19.152542" x2="-18.779661" y1="14.144961" y2="4.077165"><stop offset="0" stop-color="#f5f5f5"/><stop offset=".3888889" stop-color="#fdfdfd"/><stop offset="1" stop-color="#fff"/></linearGradient><path d="m2 7h20v10h-20z" fill="url(#b)"/><path d="m1 6v12h21 1v-1-10-1h-1zm2 1h18c0 .554.446 1 1 1v8a1 1 0 0 0 -1 1h-18c0-.554-.446-1-1-1v-8c.554 0 1-.446 1-1zm9 2a3 3 0 0 0 -3 3 3 3 0 0 0 3 3 3 3 0 0 0 3-3 3 3 0 0 0 -3-3z" fill="url(#a)"/><path d="m8 16a3 2 0 0 0 -3 2v2a3 2 0 0 0 3 2 3 2 0 0 0 3-2v-2a3 2 0 0 0 -3-2zm0 1a2 1 0 0 1 2 1 2 1 0 0 1 -2 1 2 1 0 0 1 -2-1 2 1 0 0 1 2-1zm-2 2.488281a3 2 0 0 0 2 .511719 3 2 0 0 0 2-.511719v1a3 2 0 0 1 -2 .511719 3 2 0 0 1 -2-.511719z" fill="#ff9500"/><path d="m8 17a2 1 0 0 0 -2 1 2 1 0 0 0 2 1 2 1 0 0 0 2-1 2 1 0 0 0 -2-1zm-2 2.488281v1a3 2 0 0 0 2 .511719 3 2 0 0 0 2-.511719v-1a3 2 0 0 1 -2 .511719 3 2 0 0 1 -2-.511719z" fill="#fff"/><path d="m20 16a3 2 0 0 0 -3 2v2a3 2 0 0 0 3 2 3 2 0 0 0 3-2v-2a3 2 0 0 0 -3-2zm0 1a2 1 0 0 1 2 1 2 1 0 0 1 -2 1 2 1 0 0 1 -2-1 2 1 0 0 1 2-1zm-2 2.488281a3 2 0 0 0 2 .511719 3 2 0 0 0 2-.511719v1a3 2 0 0 1 -2 .511719 3 2 0 0 1 -2-.511719z" fill="#ff9500"/><path d="m20 17a2 1 0 0 0 -2 1 2 1 0 0 0 2 1 2 1 0 0 0 2-1 2 1 0 0 0 -2-1zm-2 2.488281v1a3 2 0 0 0 2 .511719 3 2 0 0 0 2-.511719v-1a3 2 0 0 1 -2 .511719 3 2 0 0 1 -2-.511719z" fill="#fff"/><path d="m15 16a3 2 0 0 0 -3 2v2a3 2 0 0 0 3 2 3 2 0 0 0 3-2v-2a3 2 0 0 0 -3-2zm0 1a2 1 0 0 1 2 1 2 1 0 0 1 -2 1 2 1 0 0 1 -2-1 2 1 0 0 1 2-1zm-2 2.488281a3 2 0 0 0 2 .511719 3 2 0 0 0 2-.511719v1a3 2 0 0 1 -2 .511719 3 2 0 0 1 -2-.511719z" fill="#ff9500"/><path d="m15 17a2 1 0 0 0 -2 1 2 1 0 0 0 2 1 2 1 0 0 0 2-1 2 1 0 0 0 -2-1zm-2 2.488281v1a3 2 0 0 0 2 .511719 3 2 0 0 0 2-.511719v-1a3 2 0 0 1 -2 .511719 3 2 0 0 1 -2-.511719z" fill="#fff"/><path d="m20 14a3 2 0 0 0 -3 2v2a3 2 0 0 0 3 2 3 2 0 0 0 3-2v-2a3 2 0 0 0 -3-2zm0 1a2 1 0 0 1 2 1 2 1 0 0 1 -2 1 2 1 0 0 1 -2-1 2 1 0 0 1 2-1zm-2 2.488281a3 2 0 0 0 2 .511719 3 2 0 0 0 2-.511719v1a3 2 0 0 1 -2 .511719 3 2 0 0 1 -2-.511719z" fill="#ff9500"/><path d="m20 15a2 1 0 0 0 -2 1 2 1 0 0 0 2 1 2 1 0 0 0 2-1 2 1 0 0 0 -2-1zm-2 2.488281v1a3 2 0 0 0 2 .511719 3 2 0 0 0 2-.511719v-1a3 2 0 0 1 -2 .511719 3 2 0 0 1 -2-.511719z" fill="#fff"/><path d="m15 14a3 2 0 0 0 -3 2v2a3 2 0 0 0 3 2 3 2 0 0 0 3-2v-2a3 2 0 0 0 -3-2zm0 1a2 1 0 0 1 2 1 2 1 0 0 1 -2 1 2 1 0 0 1 -2-1 2 1 0 0 1 2-1zm-2 2.488281a3 2 0 0 0 2 .511719 3 2 0 0 0 2-.511719v1a3 2 0 0 1 -2 .511719 3 2 0 0 1 -2-.511719z" fill="#ff9500"/><path d="m15 15a2 1 0 0 0 -2 1 2 1 0 0 0 2 1 2 1 0 0 0 2-1 2 1 0 0 0 -2-1zm-2 2.488281v1a3 2 0 0 0 2 .511719 3 2 0 0 0 2-.511719v-1a3 2 0 0 1 -2 .511719 3 2 0 0 1 -2-.511719z" fill="#fff"/><path d="m20 12a3 2 0 0 0 -3 2v2a3 2 0 0 0 3 2 3 2 0 0 0 3-2v-2a3 2 0 0 0 -3-2zm0 1a2 1 0 0 1 2 1 2 1 0 0 1 -2 1 2 1 0 0 1 -2-1 2 1 0 0 1 2-1zm-2 2.488281a3 2 0 0 0 2 .511719 3 2 0 0 0 2-.511719v1a3 2 0 0 1 -2 .511719 3 2 0 0 1 -2-.511719z" fill="#ff9500"/><path d="m20 13a2 1 0 0 0 -2 1 2 1 0 0 0 2 1 2 1 0 0 0 2-1 2 1 0 0 0 -2-1zm-2 2.488281v1a3 2 0 0 0 2 .511719 3 2 0 0 0 2-.511719v-1a3 2 0 0 1 -2 .511719 3 2 0 0 1 -2-.511719z" fill="#fff"/></svg>

<?xml version="1.0" encoding="UTF-8" standalone="no"?>
<svg
   xmlns:dc="http://purl.org/dc/elements/1.1/"
   xmlns:cc="http://creativecommons.org/ns#"
   xmlns:rdf="http://www.w3.org/1999/02/22-rdf-syntax-ns#"
   xmlns:svg="http://www.w3.org/2000/svg"
   xmlns="http://www.w3.org/2000/svg"
   xmlns:xlink="http://www.w3.org/1999/xlink"
   xmlns:sodipodi="http://sodipodi.sourceforge.net/DTD/sodipodi-0.dtd"
   xmlns:inkscape="http://www.inkscape.org/namespaces/inkscape"
   viewBox="0 0 24 24"
   version="1.1"
   id="svg29"
   sodipodi:docname="lc_currencyfield.svg"
   inkscape:version="0.92.3 (2405546, 2018-03-11)">
  <metadata
     id="metadata35">
    <rdf:RDF>
      <cc:Work
         rdf:about="">
        <dc:format>image/svg+xml</dc:format>
        <dc:type
           rdf:resource="http://purl.org/dc/dcmitype/StillImage" />
        <dc:title />
      </cc:Work>
    </rdf:RDF>
  </metadata>
  <defs
     id="defs33">
    <linearGradient
       gradientTransform="translate(-31.118644,6.6101695)"
       id="a"
       gradientUnits="userSpaceOnUse"
       x1="14"
       x2="13.79661"
       y1="22"
       y2="2.1355929">
      <stop
         offset="0"
         stop-color="#0040dd"
         id="stop1586"
         style="stop-color:#2a9240;stop-opacity:1" />
      <stop
         offset="1"
         stop-color="#0a84ff"
         id="stop1588"
         style="stop-color:#32d74b;stop-opacity:1" />
    </linearGradient>
    <linearGradient
       inkscape:collect="always"
       xlink:href="#a"
       id="linearGradient2174"
       x1="11.779661"
       y1="18"
       x2="12.322034"
       y2="6.8135595"
       gradientUnits="userSpaceOnUse" />
    <linearGradient
       gradientTransform="translate(-29.898305,-2.9397842)"
       id="a-2"
       gradientUnits="userSpaceOnUse"
       x1="7"
       x2="7"
       y1="20"
       y2="3">
      <stop
         offset="0"
         stop-color="#f5f5f5"
         id="stop2344" />
      <stop
         offset=".3888889"
         stop-color="#fdfdfd"
         id="stop2346" />
      <stop
         offset="1"
         stop-color="#fff"
         id="stop2348" />
    </linearGradient>
    <linearGradient
       inkscape:collect="always"
       xlink:href="#a-2"
       id="linearGradient2939"
       x1="10.745763"
       y1="17.084745"
       x2="11.118644"
       y2="7.0169492"
       gradientUnits="userSpaceOnUse" />
  </defs>
  <sodipodi:namedview
     pagecolor="#ffffff"
     bordercolor="#666666"
     borderopacity="1"
     objecttolerance="10"
     gridtolerance="10"
     guidetolerance="10"
     inkscape:pageopacity="0"
     inkscape:pageshadow="2"
     inkscape:window-width="1366"
     inkscape:window-height="685"
     id="namedview31"
     showgrid="false"
     inkscape:zoom="6.9532168"
     inkscape:cx="2.1728241"
     inkscape:cy="-0.97332098"
     inkscape:window-x="0"
     inkscape:window-y="0"
     inkscape:window-maximized="1"
     inkscape:current-layer="svg29" />
  <rect
     style="fill:url(#linearGradient2939);fill-opacity:1"
     id="rect821"
     width="20"
     height="10"
     x="2"
     y="7"
     ry="0" />
  <path
     style="fill:url(#linearGradient2174);fill-opacity:1"
     d="M 1 6 L 1 18 L 22 18 L 23 18 L 23 17 L 23 7 L 23 6 L 22 6 L 1 6 z M 3 7 L 21 7 C 21 7.554 21.446 8 22 8 L 22 16 A 1 1 0 0 0 21 17 L 3 17 C 3 16.446 2.554 16 2 16 L 2 8 C 2.554 8 3 7.554 3 7 z M 12 9 A 3 3 0 0 0 9 12 A 3 3 0 0 0 12 15 A 3 3 0 0 0 15 12 A 3 3 0 0 0 12 9 z "
     id="path3" />
  <path
     style="fill:#ff9500;fill-opacity:1"
     d="m 8,16 a 3,2 0 0 0 -3,2 v 2 a 3,2 0 0 0 3,2 3,2 0 0 0 3,-2 V 18 A 3,2 0 0 0 8,16 Z m 0,1 a 2,1 0 0 1 2,1 2,1 0 0 1 -2,1 2,1 0 0 1 -2,-1 2,1 0 0 1 2,-1 z M 6,19.488281 A 3,2 0 0 0 8,20 3,2 0 0 0 10,19.488281 v 1 A 3,2 0 0 1 8,21 3,2 0 0 1 6,20.488281 Z"
     id="path5" />
  <path
     style="fill:#ffffff"
     d="m 8,17 a 2,1 0 0 0 -2,1 2,1 0 0 0 2,1 2,1 0 0 0 2,-1 2,1 0 0 0 -2,-1 z m -2,2.488281 v 1 A 3,2 0 0 0 8,21 3,2 0 0 0 10,20.488281 v -1 A 3,2 0 0 1 8,20 3,2 0 0 1 6,19.488281 Z"
     id="path7" />
  <path
     style="fill:#ff9500;fill-opacity:1"
     d="m 20,16 a 3,2 0 0 0 -3,2 v 2 a 3,2 0 0 0 3,2 3,2 0 0 0 3,-2 v -2 a 3,2 0 0 0 -3,-2 z m 0,1 a 2,1 0 0 1 2,1 2,1 0 0 1 -2,1 2,1 0 0 1 -2,-1 2,1 0 0 1 2,-1 z m -2,2.488281 A 3,2 0 0 0 20,20 3,2 0 0 0 22,19.488281 v 1 A 3,2 0 0 1 20,21 3,2 0 0 1 18,20.488281 Z"
     id="path9" />
  <path
     style="fill:#ffffff"
     d="m 20,17 a 2,1 0 0 0 -2,1 2,1 0 0 0 2,1 2,1 0 0 0 2,-1 2,1 0 0 0 -2,-1 z m -2,2.488281 v 1 A 3,2 0 0 0 20,21 3,2 0 0 0 22,20.488281 v -1 A 3,2 0 0 1 20,20 3,2 0 0 1 18,19.488281 Z"
     id="path11" />
  <path
     style="fill:#ff9500;fill-opacity:1"
     d="m 15,16 a 3,2 0 0 0 -3,2 v 2 a 3,2 0 0 0 3,2 3,2 0 0 0 3,-2 v -2 a 3,2 0 0 0 -3,-2 z m 0,1 a 2,1 0 0 1 2,1 2,1 0 0 1 -2,1 2,1 0 0 1 -2,-1 2,1 0 0 1 2,-1 z m -2,2.488281 A 3,2 0 0 0 15,20 3,2 0 0 0 17,19.488281 v 1 A 3,2 0 0 1 15,21 3,2 0 0 1 13,20.488281 Z"
     id="path13" />
  <path
     style="fill:#ffffff"
     d="m 15,17 a 2,1 0 0 0 -2,1 2,1 0 0 0 2,1 2,1 0 0 0 2,-1 2,1 0 0 0 -2,-1 z m -2,2.488281 v 1 A 3,2 0 0 0 15,21 3,2 0 0 0 17,20.488281 v -1 A 3,2 0 0 1 15,20 3,2 0 0 1 13,19.488281 Z"
     id="path15" />
  <path
     style="fill:#ff9500;fill-opacity:1"
     d="m 20,14 a 3,2 0 0 0 -3,2 v 2 a 3,2 0 0 0 3,2 3,2 0 0 0 3,-2 v -2 a 3,2 0 0 0 -3,-2 z m 0,1 a 2,1 0 0 1 2,1 2,1 0 0 1 -2,1 2,1 0 0 1 -2,-1 2,1 0 0 1 2,-1 z m -2,2.488281 A 3,2 0 0 0 20,18 3,2 0 0 0 22,17.488281 v 1 A 3,2 0 0 1 20,19 3,2 0 0 1 18,18.488281 Z"
     id="path17" />
  <path
     style="fill:#ffffff"
     d="m 20,15 a 2,1 0 0 0 -2,1 2,1 0 0 0 2,1 2,1 0 0 0 2,-1 2,1 0 0 0 -2,-1 z m -2,2.488281 v 1 A 3,2 0 0 0 20,19 3,2 0 0 0 22,18.488281 v -1 A 3,2 0 0 1 20,18 3,2 0 0 1 18,17.488281 Z"
     id="path19" />
  <path
     style="fill:#ff9500;fill-opacity:1"
     d="m 15,14 a 3,2 0 0 0 -3,2 v 2 a 3,2 0 0 0 3,2 3,2 0 0 0 3,-2 v -2 a 3,2 0 0 0 -3,-2 z m 0,1 a 2,1 0 0 1 2,1 2,1 0 0 1 -2,1 2,1 0 0 1 -2,-1 2,1 0 0 1 2,-1 z m -2,2.488281 A 3,2 0 0 0 15,18 3,2 0 0 0 17,17.488281 v 1 A 3,2 0 0 1 15,19 3,2 0 0 1 13,18.488281 Z"
     id="path21" />
  <path
     style="fill:#ffffff"
     d="m 15,15 a 2,1 0 0 0 -2,1 2,1 0 0 0 2,1 2,1 0 0 0 2,-1 2,1 0 0 0 -2,-1 z m -2,2.488281 v 1 A 3,2 0 0 0 15,19 3,2 0 0 0 17,18.488281 v -1 A 3,2 0 0 1 15,18 3,2 0 0 1 13,17.488281 Z"
     id="path23" />
  <path
     style="fill:#ff9500;fill-opacity:1"
     d="m 20,12 a 3,2 0 0 0 -3,2 v 2 a 3,2 0 0 0 3,2 3,2 0 0 0 3,-2 v -2 a 3,2 0 0 0 -3,-2 z m 0,1 a 2,1 0 0 1 2,1 2,1 0 0 1 -2,1 2,1 0 0 1 -2,-1 2,1 0 0 1 2,-1 z m -2,2.488281 A 3,2 0 0 0 20,16 3,2 0 0 0 22,15.488281 v 1 A 3,2 0 0 1 20,17 3,2 0 0 1 18,16.488281 Z"
     id="path25" />
  <path
     style="fill:#ffffff"
     d="m 20,13 a 2,1 0 0 0 -2,1 2,1 0 0 0 2,1 2,1 0 0 0 2,-1 2,1 0 0 0 -2,-1 z m -2,2.488281 v 1 A 3,2 0 0 0 20,17 3,2 0 0 0 22,16.488281 v -1 A 3,2 0 0 1 20,16 3,2 0 0 1 18,15.488281 Z"
     id="path27" />
</svg>
